packages/icons/svg/24/Overlay.svg

<svg width="24" height="24" viewBox="0 0 24 24" fill="none" xmlns="http://www.w3.org/2000/svg">
<path fill-rule="evenodd" clip-rule="evenodd" d="M12.0091 2.00806L11.262 2.82525L11.1496 2.94833C11.0779 3.02693 10.9749 3.13991 10.8497 3.2776C10.5992 3.5529 10.2593 3.92732 9.90202 4.32341C9.1997 5.10201 8.39445 6.00362 8.09712 6.37453C7.60984 6.9824 7.2613 7.7075 7.10025 8.5H5.82756C4.86729 8.5 4.04256 9.18247 3.86288 10.1258L2.24383 18.6258C2.00908 19.8582 2.9539 21 4.20851 21H19.7916C21.0462 21 21.991 19.8582 21.7563 18.6258L20.1372 10.1258C19.9576 9.18247 19.1328 8.5 18.1726 8.5H16.8999C16.7388 7.7075 16.3903 6.9824 15.903 6.37453L15.8865 6.35394L12.0091 2.00806ZM16.9 10.5C16.4368 12.7822 14.419 14.5 12.0001 14.5C9.5811 14.5 7.56334 12.7822 7.10007 10.5H5.82756L4.20851 19H19.7916L18.1726 10.5H16.9ZM11.3871 5.66299C11.6002 5.42672 11.8073 5.19807 11.9926 4.99376L14.3577 7.64465C14.7604 8.1554 15.0001 8.79838 15.0001 9.5C15.0001 11.1569 13.6569 12.5 12.0001 12.5C10.3432 12.5 9.00006 11.1569 9.00006 9.5C9.00006 8.78956 9.24575 8.13925 9.65762 7.62547C9.90924 7.31157 10.6653 6.46318 11.3871 5.66299Z" fill="#858585"/>
</svg>

<svg width="24" height="24" fill="none" xmlns="http://www.w3.org/2000/svg" viewBox="0 0 24 24"><path fill-rule="evenodd" clip-rule="evenodd" d="M12.01 2.008l-.748.817-.112.123a275.021 275.021 0 00-1.248 1.375c-.702.779-1.508 1.68-1.805 2.052A4.985 4.985 0 007.1 8.5H5.828a2 2 0 00-1.965 1.626l-1.62 8.5A2 2 0 004.21 21h15.583a2 2 0 001.964-2.374l-1.619-8.5A2 2 0 0018.173 8.5H16.9a4.985 4.985 0 00-.997-2.125l-.017-.021-3.877-4.346zM16.9 10.5a5.002 5.002 0 01-9.8 0H5.828L4.208 19h15.584l-1.62-8.5H16.9zm-5.513-4.837l.606-.67 2.365 2.652a3 3 0 11-4.7-.02c.251-.313 1.007-1.162 1.73-1.962z" fill="currentColor"></path></svg>
